X: 1
T: Andy De Jarlis
T: Jig D Maj
M: 6/8
L: 1/8
Q:400
R: jig
K: Dmaj
| d2e |: fef def | gfg B3 | efe e2d |cBA a2g | 
| fef def | gfg B3 | efe ABc | df~e d2 z :|
|: (DFA) (DFA) | (DFA) (B2 A) | (DFA) (DFA) | (G~FG)  E2 F |
| (DFA) (DFA) | (DFA) (B2 g) |  ~fed ABc | dfe d2 z :|
